Flat-Remix-Dark/apps/scalable/bomi.svg

<svg xmlns="http://www.w3.org/2000/svg" xmlns:xlink="http://www.w3.org/1999/xlink" width="384pt" height="384pt" version="1.1" viewBox="0 0 384 384">
 <defs>
  <filter id="alpha" width="100%" height="100%" x="0%" y="0%" filterUnits="objectBoundingBox">
   <feColorMatrix in="SourceGraphic" type="matrix" values="0 0 0 0 1 0 0 0 0 1 0 0 0 0 1 0 0 0 1 0"/>
  </filter>
  <mask id="mask0">
   <g filter="url(#alpha)">
    <rect width="384" height="384" x="0" y="0" style="fill:rgb(0%,0%,0%);fill-opacity:0.2"/>
   </g>
  </mask>
  <clipPath id="clip1">
   <rect width="384" height="384" x="0" y="0"/>
  </clipPath>
  <g id="surface5" clip-path="url(#clip1)">
   <path style="fill:rgb(0%,0%,0%)" d="M 24 336 L 24 348 C 24 357.972656 32.027344 366 42 366 L 342 366 C 351.972656 366 360 357.972656 360 348 L 360 336 C 360 345.972656 351.972656 354 342 354 L 42 354 C 32.027344 354 24 345.972656 24 336 Z M 24 336"/>
  </g>
  <mask id="mask1">
   <g filter="url(#alpha)">
    <rect width="384" height="384" x="0" y="0" style="fill:rgb(0%,0%,0%);fill-opacity:0.101961"/>
   </g>
  </mask>
  <clipPath id="clip2">
   <rect width="384" height="384" x="0" y="0"/>
  </clipPath>
  <g id="surface8" clip-path="url(#clip2)">
   <path style="fill:rgb(100%,100%,100%)" d="M 42 24 C 32.027344 24 24 32.027344 24 42 L 24 48 C 24 38.027344 32.027344 30 42 30 L 342 30 C 351.972656 30 360 38.027344 360 48 L 360 42 C 360 32.027344 351.972656 24 342 24 Z M 42 24"/>
  </g>
  <mask id="mask2">
   <g filter="url(#alpha)">
    <rect width="384" height="384" x="0" y="0" style="fill:rgb(0%,0%,0%);fill-opacity:0.2"/>
   </g>
  </mask>
  <clipPath id="clip3">
   <rect width="384" height="384" x="0" y="0"/>
  </clipPath>
  <g id="surface11" clip-path="url(#clip3)">
   <path style="fill:rgb(0%,0%,0%)" d="M 192 89.996094 C 179.730469 90.035156 167.554688 92.167969 156 96.300781 L 156 234 C 156 240.648438 150.648438 246 144 246 C 137.351562 246 132 240.648438 132 234 L 132 108.300781 C 102.039062 128.320312 84.035156 161.964844 84 198 C 84 257.648438 132.351562 306 192 306 C 251.648438 306 300 257.648438 300 198 C 300 138.351562 251.648438 90 192 90 Z M 185.316406 149.996094 C 186.195312 150.011719 187.058594 150.253906 187.824219 150.703125 L 224.578125 171.980469 L 261.324219 193.277344 C 262.980469 194.238281 264.003906 196.039062 264.003906 197.996094 C 264.003906 199.949219 262.980469 201.753906 261.324219 202.710938 L 224.578125 224.011719 L 187.824219 245.289062 C 186.199219 246.226562 184.214844 246.210938 182.605469 245.246094 C 180.996094 244.277344 180.003906 242.503906 180 240.582031 L 180 155.40625 C 180 153.960938 180.5625 152.574219 181.558594 151.554688 C 182.558594 150.539062 183.910156 149.976562 185.316406 149.996094 Z M 185.316406 149.996094"/>
  </g>
 </defs>
 <g>
  <use mask="url(#mask0)" xlink:href="#surface5"/>
  <path style="fill:rgb(96.470588%,27.843137%,27.843137%)" d="M 360 342 L 360 42 C 360 32.058594 351.941406 24 342 24 L 42 24 C 32.058594 24 24 32.058594 24 42 L 24 342 C 24 351.941406 32.058594 360 42 360 L 342 360 C 351.941406 360 360 351.941406 360 342 Z M 360 342"/>
  <use mask="url(#mask1)" xlink:href="#surface8"/>
  <use mask="url(#mask2)" xlink:href="#surface11"/>
  <path style="fill:rgb(100%,100%,100%)" d="M 192 84 C 179.730469 84.042969 167.554688 86.171875 156 90.304688 L 156 228.003906 C 156 234.652344 150.648438 240.003906 144 240.003906 C 137.351562 240.003906 132 234.652344 132 228.003906 L 132 102.304688 C 102.039062 122.324219 84.035156 155.96875 84 192.003906 C 84 251.652344 132.351562 300.003906 192 300.003906 C 251.648438 300.003906 300 251.652344 300 192.003906 C 300 132.359375 251.648438 84.003906 192 84.003906 Z M 185.316406 144 C 186.195312 144.015625 187.058594 144.257812 187.824219 144.707031 L 224.578125 165.984375 L 261.324219 187.285156 C 262.980469 188.242188 264.003906 190.042969 264.003906 192 C 264.003906 193.957031 262.980469 195.757812 261.324219 196.714844 L 224.578125 218.015625 L 187.824219 239.292969 C 186.199219 240.234375 184.214844 240.214844 182.605469 239.25 C 180.996094 238.28125 180.003906 236.507812 180 234.589844 L 180 149.410156 C 180 147.964844 180.5625 146.578125 181.558594 145.5625 C 182.558594 144.542969 183.910156 143.980469 185.316406 144 Z M 185.316406 144"/>
 </g>
</svg>

<svg xmlns="http://www.w3.org/2000/svg" xmlns:xlink="http://www.w3.org/1999/xlink" width="384pt" height="384pt" version="1.1" viewBox="0 0 384 384">
 <defs>
  <filter id="alpha" width="100%" height="100%" x="0%" y="0%" filterUnits="objectBoundingBox">
   <feColorMatrix in="SourceGraphic" type="matrix" values="0 0 0 0 1 0 0 0 0 1 0 0 0 0 1 0 0 0 1 0"/>
  </filter>
  <mask id="mask2">
   <g filter="url(#alpha)">
    <rect style="fill:rgb(0%,0%,0%);fill-opacity:0.2" width="384" height="384" x="0" y="0"/>
   </g>
  </mask>
  <clipPath id="clip3">
   <rect width="384" height="384" x="0" y="0"/>
  </clipPath>
  <g id="surface11" clip-path="url(#clip3)">
   <path d="M 192 89.996094 C 179.730469 90.035156 167.554688 92.167969 156 96.300781 L 156 234 C 156 240.648438 150.648438 246 144 246 C 137.351562 246 132 240.648438 132 234 L 132 108.300781 C 102.039062 128.320312 84.035156 161.964844 84 198 C 84 257.648438 132.351562 306 192 306 C 251.648438 306 300 257.648438 300 198 C 300 138.351562 251.648438 90 192 90 Z M 185.316406 149.996094 C 186.195312 150.011719 187.058594 150.253906 187.824219 150.703125 L 224.578125 171.980469 L 261.324219 193.277344 C 262.980469 194.238281 264.003906 196.039062 264.003906 197.996094 C 264.003906 199.949219 262.980469 201.753906 261.324219 202.710938 L 224.578125 224.011719 L 187.824219 245.289062 C 186.199219 246.226562 184.214844 246.210938 182.605469 245.246094 C 180.996094 244.277344 180.003906 242.503906 180 240.582031 L 180 155.40625 C 180 153.960938 180.5625 152.574219 181.558594 151.554688 C 182.558594 150.539062 183.910156 149.976562 185.316406 149.996094 Z M 185.316406 149.996094" style="fill:rgb(0%,0%,0%)"/>
  </g>
 </defs>
 <g transform="matrix(1.5202703,0,0,1.5202703,-99.891898,-104.45271)">
  <circle style="fill:#f54545" cx="192" cy="192" r="96.61"/>
  <use width="100%" height="100%" x="0" y="0" mask="url(#mask2)" transform="translate(0,1.9733333)" xlink:href="#surface11"/>
  <path style="opacity:0.3;fill:#171717" d="M 256,127.18555 A 128.81356,128.81356 0 0 0 127.18555,256 128.81356,128.81356 0 0 0 127.39453,261.84766 128.81356,128.81356 0 0 1 256,137.18555 128.81356,128.81356 0 0 1 384.60547,260.15234 128.81356,128.81356 0 0 0 384.81445,256 128.81356,128.81356 0 0 0 256,127.18555 Z" transform="scale(0.75)"/>
  <path d="m 192,84 c -12.26953,0.04297 -24.44531,2.171875 -36,6.304688 V 228.00391 c 0,6.64843 -5.35156,12 -12,12 -6.64844,0 -12,-5.35157 -12,-12 V 102.30469 c -29.96094,20.01953 -47.964844,53.66406 -48,89.69922 0,59.64843 48.35156,108 108,108 59.64844,0 108,-48.35157 108,-108 C 300,132.35937 251.64844,84.003906 192,84.003906 Z m -6.68359,60 c 0.8789,0.0156 1.74218,0.25781 2.50781,0.70703 l 36.7539,21.27734 36.7461,21.30079 c 1.65625,0.95703 2.67969,2.75781 2.67969,4.71484 0,1.95703 -1.02344,3.75781 -2.67969,4.71484 l -36.7461,21.30078 -36.7539,21.27735 c -1.625,0.9414 -3.60938,0.92187 -5.21875,-0.043 -1.60938,-0.96875 -2.60156,-2.74219 -2.60547,-4.66016 v -85.17968 c 0,-1.44532 0.5625,-2.83204 1.55859,-3.84766 1,-1.01953 2.35157,-1.58203 3.75782,-1.5625 z m 0,0" style="fill:#ffffff"/>
 </g>
</svg>
